src/scalable/apps/cs-desklets.svg

<?xml version="1.0" encoding="UTF-8" standalone="no"?>
<svg
   width="64"
   height="64"
   version="1.1"
   id="svg8"
   sodipodi:docname="cs-desklets.svg"
   inkscape:version="1.4 (e7c3feb100, 2024-10-09)"
   xmlns:inkscape="http://www.inkscape.org/namespaces/inkscape"
   xmlns:sodipodi="http://sodipodi.sourceforge.net/DTD/sodipodi-0.dtd"
   xmlns="http://www.w3.org/2000/svg"
   xmlns:svg="http://www.w3.org/2000/svg">
  <defs
     id="defs8" />
  <sodipodi:namedview
     id="namedview8"
     pagecolor="#ffffff"
     bordercolor="#000000"
     borderopacity="0.25"
     inkscape:showpageshadow="2"
     inkscape:pageopacity="0.0"
     inkscape:pagecheckerboard="0"
     inkscape:deskcolor="#d1d1d1"
     inkscape:zoom="2.75"
     inkscape:cx="82.727273"
     inkscape:cy="69.090909"
     inkscape:window-width="1920"
     inkscape:window-height="1012"
     inkscape:window-x="0"
     inkscape:window-y="0"
     inkscape:window-maximized="1"
     inkscape:current-layer="svg8" />
  <rect
     width="54"
     height="54"
     x="5"
     y="5"
     fill="#ba9478"
     rx="27"
     ry="27"
     id="rect1"
     style="stroke-width:1.03846" />
  <rect
     width="46"
     height="46"
     x="9"
     y="9"
     fill="#fff4ab"
     rx="23"
     ry="23"
     id="rect2" />
  <path
     id="rect3"
     style="paint-order:stroke fill markers;fill:#e4d66a;fill-opacity:1"
     d="M 15.457031 16 C 14.844964 16.632839 14.268849 17.299943 13.732422 18 L 50.267578 18 C 49.731151 17.299943 49.155036 16.632839 48.542969 16 L 15.457031 16 z M 11.267578 22 C 10.954829 22.649988 10.671685 23.317421 10.419922 24 L 53.580078 24 C 53.328315 23.317421 53.045171 22.649988 52.732422 22 L 11.267578 22 z M 9.3496094 28 C 9.2351693 28.657404 9.1495407 29.324317 9.0917969 30 L 54.908203 30 C 54.850459 29.324317 54.764831 28.657404 54.650391 28 L 9.3496094 28 z M 9.0917969 34 C 9.1495407 34.675683 9.2351693 35.342596 9.3496094 36 L 54.650391 36 C 54.764831 35.342596 54.850459 34.675683 54.908203 34 L 9.0917969 34 z M 10.419922 40 C 10.671685 40.682579 10.954829 41.350012 11.267578 42 L 52.732422 42 C 53.045171 41.350012 53.328315 40.682579 53.580078 40 L 10.419922 40 z M 13.732422 46 C 14.268849 46.700057 14.844964 47.367161 15.457031 48 L 48.542969 48 C 49.155036 47.367161 49.731151 46.700057 50.267578 46 L 13.732422 46 z " />
  <path
     id="path8"
     style="fill:#e6b2a9;fill-opacity:1"
     d="M 22 11.267578 C 21.31307 11.598103 20.646556 11.962755 20 12.357422 L 20 51.642578 C 20.646556 52.037245 21.31307 52.401897 22 52.732422 L 22 11.267578 z " />
</svg>

<svg xmlns="http://www.w3.org/2000/svg" width="64" height="64"><rect width="54" height="54" x="5" y="5" fill="#ba9478" rx="27" ry="27" style="stroke-width:1.03846"/><rect width="46" height="46" x="9" y="9" fill="#fff4ab" rx="23" ry="23"/><path d="M15.457 16q-.919.95-1.725 2h36.536a23 23 0 0 0-1.725-2zm-4.19 6q-.469.975-.847 2h43.16a23 23 0 0 0-.848-2zM9.35 28q-.172.986-.258 2h45.816a23 23 0 0 0-.258-2zm-.258 6q.086 1.014.258 2h45.3q.172-.986.258-2zm1.328 6q.378 1.025.848 2h41.464q.47-.975.848-2zm3.312 6q.806 1.05 1.725 2h33.086q.919-.95 1.725-2z" style="paint-order:stroke fill markers;fill:#e4d66a;fill-opacity:1"/><path d="M22 11.268q-1.03.496-2 1.09v39.285q.97.592 2 1.09z" style="fill:#e6b2a9;fill-opacity:1"/></svg>
